X:1
T:Signora par ch'el ciel
T:Signora par ch'el ciel
T:Giovanni Francesco Capuano
T:Source : Secondo libro delle villanelle a 3 voci---Venetia---Figlio d'A.Gardano---1574. Editor : André Vierendeels (20/03/16).
T:Notes : Original clefs : C1, C2, C4 Editorial accidentals above the staff "Alla napolitana" Music by composers from Bari, collected by G.de Antiquis 
T:©
T:©
C:Giovanni Francesco Capuano
Z:©
%%score [ 1 2 3 ]
L:1/8
Q:1/4=90
M:4/4
K:C
V:1 treble nm="Soprano" snm="S"
V:2 treble nm="Alto" snm="A"
V:3 treble-8 nm="Tenor" snm="T"
V:1
 G4 G4- | G2 G2 A2 A2 | B4 d4 | c2 B2 A4 | G2 B2 c2 c2 |1[M:3/4] B4 A2 ::2[M:4/4] B4 A2 A2- || %7
w: 1)Si- gno-|* ra par ch'el|ciel v'ha|fat- t'a, po-|sta, v'ha fat- t'a|1)po- sta,|po- sta, per|
w: 2)So- pra|_ di voi o-|gni bel-|lez- za'ha po-|sta, bel- lez- za'ha|2)po- sta,|po- sta, il|
w: 3)E s'a|_ voi po- co|po- co'al-|cun s'ac- co-|sta, al- cun s'ac-|3)co- sta,|co- sta, sen-|
w: 4)Fe- ro|_ si- gno- ra|mia voi|se- te quel-|la, voi se- te|4)quel- la|quel- la, che|
 A2 G4 G2 | c2 c2 B4 | A4 B2 c2 | B4 A2 A2 | c2 c2 G4 | B8 |1 z2 B2 c2 c2 :|2 A2 A2 B2 c2 || %15
w: _ fa- re-|ve pa- dro-|na de la|1)gen- te Ch'af-|fa- to- ra-|te|v'ha fat- t'a|chi vi tie- ne|
w: _ ri- der|il par- lar|di dol- ce-|2)men- te Ch'af-|fa- to- ra-|te|bel- lez- za'ha|chi vi tie- ne|
w: * te u-|no o- do-|re sua- ve-|3)men- te Chaf-|fa- to- ra-|te|al- cun s'ac-|chi vi tie- ne|
w: _ da- te|lu- ce'al so-|l'e o- gni|4)stel- la et|a noi vi-|ta|voi se- te|con sta fac- cia|
 B4 A4 |] %16
w: men- te.|
w: men- te.|
w: men- te.|
w: bel- la.|
V:2
 E4 E4- | E2 D2 E2 F2 | G4 D4 |"^#" E2 G4 F2 | G2 G2 E2 A2- |1[M:3/4] A2 ^G2 A2 ::2 %6
w: 1)Si- gno-|* ra par ch'el|ciel v'ha|fat- t'ha, po-|sta, v'ha fat- t'a|1) po- sta,|
w: 2)So- pra|_ di voi o-|gni bel-|lez- za po-|sta, bel- lez- za'ha|2) po- sta,|
[M:4/4] A2 ^G2 A2 F2- || F2 E4 D2 | E2 F2 G4 | F4 E2 A2- | A2 ^G2 A4 | z4 E4 | G2 G2 D2 D2 |1 %13
w: (a) po- sta, per|_ fa- re-|ve pa- dro-|na de la|1) gen- te|Ch'af-|fa- to- ra- te|
w: (a) po- sta il|_ ri- der|il par- lar|di dol- ce-|2) men- te|Ch'af-|fa- to- ra- te|
 z2 G2 E2 A2- :|2 F2 F2 G2 A2- || A2 ^G2 A4 |] %16
w: |chi vi tie- ne|_ men- te.|
w: |chi vi tie- ne|_ men- te.|
V:3
 c4 c4- | c2 B2 c2 d2 | G4 B4 | A2 G2 d4 | G2 G2 A2 A2 |1[M:3/4] e4 A2 ::2[M:4/4] e4 A2 d2- || %7
w: 3)E s'a|_ voi po- co|po- co'al-|cun s'ac- co-|sta, al- cun s'ac-|3)co- sta,|co- sta, sen-|
w: 4)Fe- ro|_ si- gno- ra|mia voi|se- te quel-|la, voi se- te|4)quel- la,|quel- la, che|
 d2 c4 B2 | A2 A2 G4 | d4 e2 f2 | e4 A4 | A4 c2 c2 | G6 G2 |1 z2 G2 A2 A2 :|2 d2 d2 e2 f2 || %15
w: * te u-|no o- do-|re sua- ve-|3)men- te|Ch'af- fat- to-|ra- te||chi vi tie- ne|
w: _ da- te|lu- ce'al so-|l'e o- gni|4)stel- la|et a noi|vi- ta||con sta fac- cia|
 e4 A4 |] %16
w: men- te.|
w: bel- la.|

